svg/color/adax.svg

<?xml version="1.0" encoding="UTF-8" ?>
<!DOCTYPE svg PUBLIC "-//W3C//DTD SVG 1.1//EN" "http://www.w3.org/Graphics/SVG/1.1/DTD/svg11.dtd">
<svg width="247pt" height="250pt" viewBox="0 0 247 250" version="1.1" xmlns="http://www.w3.org/2000/svg">
<g id="#ffffffff">
<path fill="#ffffff" opacity="1.00" d=" M 0.00 0.00 L 247.00 0.00 L 247.00 250.00 L 0.00 250.00 L 0.00 0.00 M 14.38 5.59 C 6.27 8.05 0.73 16.69 1.80 25.08 C 2.47 31.35 6.54 37.14 12.31 39.73 C 18.67 42.83 26.74 41.64 32.03 36.98 C 38.17 31.80 40.22 22.41 36.62 15.20 C 32.98 7.03 22.83 2.61 14.38 5.59 M 220.39 5.64 C 212.99 8.28 207.75 16.03 208.38 23.92 C 208.61 32.76 216.18 40.49 224.93 41.24 C 234.84 42.42 244.79 34.05 244.87 23.99 C 245.47 17.27 241.86 10.46 236.03 7.11 C 231.40 4.29 225.48 3.77 220.39 5.64 M 119.54 15.72 C 114.90 17.35 111.48 22.04 111.60 27.00 C 111.50 33.47 117.54 39.36 124.06 38.70 C 131.60 38.70 137.38 30.12 134.63 23.11 C 132.72 17.01 125.55 13.57 119.54 15.72 M 70.43 49.59 C 62.38 50.88 55.02 55.83 50.75 62.77 C 43.47 74.06 45.70 90.30 55.86 99.12 C 66.31 109.16 84.48 108.96 94.74 98.72 C 105.37 89.12 106.67 71.38 97.66 60.27 C 91.44 52.04 80.57 47.89 70.43 49.59 M 165.48 49.89 C 153.08 52.55 143.31 64.22 143.24 76.95 C 142.72 86.76 147.87 96.53 156.08 101.86 C 163.29 106.71 172.78 107.89 180.99 105.06 C 189.09 102.38 195.75 95.81 198.67 87.81 C 202.61 77.45 199.81 64.93 191.71 57.34 C 185.00 50.53 174.75 47.87 165.48 49.89 M 19.38 115.47 C 15.33 117.30 12.32 121.50 12.36 126.01 C 12.07 131.65 16.38 137.03 21.95 137.96 C 28.99 139.59 36.57 133.23 35.86 125.94 C 36.14 117.86 26.58 111.88 19.38 115.47 M 219.19 115.05 C 214.78 116.36 211.43 120.39 210.87 124.95 C 209.98 131.12 214.76 137.32 220.91 138.15 C 227.90 139.39 234.90 133.16 234.46 126.08 C 234.53 118.56 226.33 112.58 219.19 115.05 M 70.38 146.51 C 61.09 147.96 52.77 154.31 48.95 162.90 C 43.64 174.16 46.76 188.65 56.39 196.58 C 67.28 206.48 85.82 205.55 95.67 194.61 C 106.19 184.20 106.15 165.63 95.81 155.11 C 89.43 148.24 79.61 145.01 70.38 146.51 M 165.52 146.80 C 153.04 149.38 143.14 161.18 143.18 173.99 C 142.68 183.59 147.64 193.15 155.58 198.50 C 163.50 204.05 174.33 205.05 183.16 201.11 C 192.74 197.05 199.53 187.40 200.27 177.04 C 201.29 165.78 194.87 154.38 184.78 149.30 C 178.93 146.16 171.98 145.55 165.52 146.80 M 222.44 211.76 C 212.00 214.01 205.47 226.33 209.62 236.22 C 212.83 245.47 224.00 250.30 233.07 246.91 C 241.64 243.88 247.03 233.92 244.50 225.10 C 242.38 215.60 231.86 209.28 222.44 211.76 M 13.39 212.71 C 6.75 215.23 2.07 221.88 1.76 228.95 C 1.19 238.24 8.61 247.11 17.91 248.05 C 29.11 249.83 39.90 239.22 38.38 227.99 C 37.62 216.32 24.17 207.94 13.39 212.71 M 119.44 214.60 C 115.06 216.12 111.78 220.38 111.55 225.03 C 110.90 231.80 117.14 238.21 123.95 237.61 C 131.12 237.53 136.87 229.83 134.81 222.95 C 133.39 216.29 125.79 212.38 119.44 214.60 Z" />
</g>
<g id="#3f55c4ff">
<path fill="#3f55c4" opacity="1.00" d=" M 14.38 5.59 C 22.83 2.61 32.98 7.03 36.62 15.20 C 40.22 22.41 38.17 31.80 32.03 36.98 C 26.74 41.64 18.67 42.83 12.31 39.73 C 6.54 37.14 2.47 31.35 1.80 25.08 C 0.73 16.69 6.27 8.05 14.38 5.59 Z" />
<path fill="#3f55c4" opacity="1.00" d=" M 220.39 5.64 C 225.48 3.77 231.40 4.29 236.03 7.11 C 241.86 10.46 245.47 17.27 244.87 23.99 C 244.79 34.05 234.84 42.42 224.93 41.24 C 216.18 40.49 208.61 32.76 208.38 23.92 C 207.75 16.03 212.99 8.28 220.39 5.64 Z" />
<path fill="#3f55c4" opacity="1.00" d=" M 119.54 15.72 C 125.55 13.57 132.72 17.01 134.63 23.11 C 137.38 30.12 131.60 38.70 124.06 38.70 C 117.54 39.36 111.50 33.47 111.60 27.00 C 111.48 22.04 114.90 17.35 119.54 15.72 Z" />
<path fill="#3f55c4" opacity="1.00" d=" M 70.43 49.59 C 80.57 47.89 91.44 52.04 97.66 60.27 C 106.67 71.38 105.37 89.12 94.74 98.72 C 84.48 108.96 66.31 109.16 55.86 99.12 C 45.70 90.30 43.47 74.06 50.75 62.77 C 55.02 55.83 62.38 50.88 70.43 49.59 Z" />
<path fill="#3f55c4" opacity="1.00" d=" M 165.48 49.89 C 174.75 47.87 185.00 50.53 191.71 57.34 C 199.81 64.93 202.61 77.45 198.67 87.81 C 195.75 95.81 189.09 102.38 180.99 105.06 C 172.78 107.89 163.29 106.71 156.08 101.86 C 147.87 96.53 142.72 86.76 143.24 76.95 C 143.31 64.22 153.08 52.55 165.48 49.89 Z" />
<path fill="#3f55c4" opacity="1.00" d=" M 19.38 115.47 C 26.58 111.88 36.14 117.86 35.86 125.94 C 36.57 133.23 28.99 139.59 21.95 137.96 C 16.38 137.03 12.07 131.65 12.36 126.01 C 12.32 121.50 15.33 117.30 19.38 115.47 Z" />
<path fill="#3f55c4" opacity="1.00" d=" M 219.19 115.05 C 226.33 112.58 234.53 118.56 234.46 126.08 C 234.90 133.16 227.90 139.39 220.91 138.15 C 214.76 137.32 209.98 131.12 210.87 124.95 C 211.43 120.39 214.78 116.36 219.19 115.05 Z" />
<path fill="#3f55c4" opacity="1.00" d=" M 70.38 146.51 C 79.61 145.01 89.43 148.24 95.81 155.11 C 106.15 165.63 106.19 184.20 95.67 194.61 C 85.82 205.55 67.28 206.48 56.39 196.58 C 46.76 188.65 43.64 174.16 48.95 162.90 C 52.77 154.31 61.09 147.96 70.38 146.51 Z" />
<path fill="#3f55c4" opacity="1.00" d=" M 165.52 146.80 C 171.98 145.55 178.93 146.16 184.78 149.30 C 194.87 154.38 201.29 165.78 200.27 177.04 C 199.53 187.40 192.74 197.05 183.16 201.11 C 174.33 205.05 163.50 204.05 155.58 198.50 C 147.64 193.15 142.68 183.59 143.18 173.99 C 143.14 161.18 153.04 149.38 165.52 146.80 Z" />
<path fill="#3f55c4" opacity="1.00" d=" M 222.44 211.76 C 231.86 209.28 242.38 215.60 244.50 225.10 C 247.03 233.92 241.64 243.88 233.07 246.91 C 224.00 250.30 212.83 245.47 209.62 236.22 C 205.47 226.33 212.00 214.01 222.44 211.76 Z" />
<path fill="#3f55c4" opacity="1.00" d=" M 13.39 212.71 C 24.17 207.94 37.62 216.32 38.38 227.99 C 39.90 239.22 29.11 249.83 17.91 248.05 C 8.61 247.11 1.19 238.24 1.76 228.95 C 2.07 221.88 6.75 215.23 13.39 212.71 Z" />
<path fill="#3f55c4" opacity="1.00" d=" M 119.44 214.60 C 125.79 212.38 133.39 216.29 134.81 222.95 C 136.87 229.83 131.12 237.53 123.95 237.61 C 117.14 238.21 110.90 231.80 111.55 225.03 C 111.78 220.38 115.06 216.12 119.44 214.60 Z" />
</g>
</svg>

<?xml version="1.0" encoding="utf-8"?>
<!-- Generator: Adobe Illustrator 26.0.3, SVG Export Plug-In . SVG Version: 6.00 Build 0)  -->
<svg version="1.1" id="Layer_1" xmlns="http://www.w3.org/2000/svg" xmlns:xlink="http://www.w3.org/1999/xlink" x="0px" y="0px"
	 viewBox="0 0 247 250" style="enable-background:new 0 0 247 250;" xml:space="preserve">
<style type="text/css">
	.st0{fill:#3F55C4;}
</style>
<g id="_x23_3f55c4ff">
	<path class="st0" d="M14.4,5.6c8.4-3,18.6,1.4,22.2,9.6c3.6,7.2,1.5,16.6-4.6,21.8c-5.3,4.7-13.4,5.9-19.7,2.8
		c-5.8-2.6-9.8-8.4-10.5-14.6C0.7,16.7,6.3,8.1,14.4,5.6z"/>
	<path class="st0" d="M220.4,5.6c5.1-1.9,11-1.3,15.6,1.5c5.8,3.3,9.4,10.2,8.8,16.9c-0.1,10.1-10,18.4-19.9,17.3
		c-8.8-0.8-16.3-8.5-16.5-17.3C207.8,16,213,8.3,220.4,5.6z"/>
	<path class="st0" d="M119.5,15.7c6-2.2,13.2,1.3,15.1,7.4c2.8,7-3,15.6-10.6,15.6c-6.5,0.7-12.6-5.2-12.5-11.7
		C111.5,22,114.9,17.4,119.5,15.7z"/>
	<path class="st0" d="M70.4,49.6c10.1-1.7,21,2.5,27.2,10.7c9,11.1,7.7,28.9-2.9,38.5c-10.3,10.2-28.4,10.4-38.9,0.4
		c-10.2-8.8-12.4-25.1-5.1-36.4C55,55.8,62.4,50.9,70.4,49.6z"/>
	<path class="st0" d="M165.5,49.9c9.3-2,19.5,0.6,26.2,7.5c8.1,7.6,10.9,20.1,7,30.5c-2.9,8-9.6,14.6-17.7,17.2
		c-8.2,2.8-17.7,1.7-24.9-3.2c-8.2-5.3-13.4-15.1-12.8-24.9C143.3,64.2,153.1,52.5,165.5,49.9z"/>
	<path class="st0" d="M19.4,115.5c7.2-3.6,16.8,2.4,16.5,10.5c0.7,7.3-6.9,13.6-13.9,12c-5.6-0.9-9.9-6.3-9.6-12
		C12.3,121.5,15.3,117.3,19.4,115.5z"/>
	<path class="st0" d="M219.2,115.1c7.1-2.5,15.3,3.5,15.3,11c0.4,7.1-6.6,13.3-13.6,12.1c-6.2-0.8-10.9-7-10-13.2
		C211.4,120.4,214.8,116.4,219.2,115.1z"/>
	<path class="st0" d="M70.4,146.5c9.2-1.5,19.1,1.7,25.4,8.6c10.3,10.5,10.4,29.1-0.1,39.5c-9.8,10.9-28.4,11.9-39.3,2
		c-9.6-7.9-12.8-22.4-7.4-33.7C52.8,154.3,61.1,148,70.4,146.5z"/>
	<path class="st0" d="M165.5,146.8c6.5-1.2,13.4-0.6,19.3,2.5c10.1,5.1,16.5,16.5,15.5,27.7c-0.7,10.4-7.5,20-17.1,24.1
		c-8.8,3.9-19.7,2.9-27.6-2.6c-7.9-5.4-12.9-14.9-12.4-24.5C143.1,161.2,153,149.4,165.5,146.8z"/>
	<path class="st0" d="M222.4,211.8c9.4-2.5,19.9,3.8,22.1,13.3c2.5,8.8-2.9,18.8-11.4,21.8c-9.1,3.4-20.2-1.4-23.5-10.7
		C205.5,226.3,212,214,222.4,211.8z"/>
	<path class="st0" d="M13.4,212.7c10.8-4.8,24.2,3.6,25,15.3c1.5,11.2-9.3,21.8-20.5,20.1c-9.3-0.9-16.7-9.8-16.1-19.1
		C2.1,221.9,6.8,215.2,13.4,212.7z"/>
	<path class="st0" d="M119.4,214.6c6.3-2.2,13.9,1.7,15.4,8.3c2.1,6.9-3.7,14.6-10.9,14.7c-6.8,0.6-13-5.8-12.4-12.6
		C111.8,220.4,115.1,216.1,119.4,214.6z"/>
</g>
</svg>
